src/16/actions/resource-calendar-child.svg

<svg xmlns="http://www.w3.org/2000/svg" viewBox="0 0 16 16"><path d="M2 2v12h5v-1H3V5h10v3h1V2h-2v2h-2V2H6v2H4V2H2zm2 4v2h2V6H4zm3 0v2h2V6H7zm3 0v2h2V6h-2zM4 9v2h2V9H4zm4 0v5h6V9h-1v1h-1V9h-2v1H9V9H8zm1 2h4v2H9v-2z" fill="currentColor" color="#5d656b"/></svg>

<svg xmlns="http://www.w3.org/2000/svg" viewBox="0 0 16 16">
  <defs id="defs3051">
    <style type="text/css" id="current-color-scheme">
      .ColorScheme-Text {
        color:#5d656b;
      }
      </style>
  </defs>
 <path style="fill:currentColor;fill-opacity:1;stroke:none" 
     d="M 2 2 L 2 9 L 2 14 L 3 14 L 7 14 L 7 13 L 3 13 L 3 9 L 3 5 L 13 5 L 13 8 L 14 8 L 14 2 L 12 2 L 12 4 L 10 4 L 10 2 L 6 2 L 6 4 L 4 4 L 4 2 L 2 2 z M 4 6 L 4 8 L 6 8 L 6 6 L 4 6 z M 7 6 L 7 8 L 9 8 L 9 6 L 7 6 z M 10 6 L 10 8 L 12 8 L 12 6 L 10 6 z M 4 9 L 4 11 L 6 11 L 6 9 L 4 9 z M 8 9 L 8 14 L 14 14 L 14 9 L 13 9 L 13 10 L 12 10 L 12 9 L 10 9 L 10 10 L 9 10 L 9 9 L 8 9 z M 9 11 L 13 11 L 13 13 L 9 13 L 9 11 z "
     class="ColorScheme-Text"
     />
</svg>
